icons/folder-zip-fill.svg

<svg xmlns="http://www.w3.org/2000/svg" width="24" height="24" fill="none"><g clip-path="url(#a)"><g><path fill="#121212" d="M21 5C21.2652 5 21.5196 5.10536 21.7071 5.29289C21.8946 5.48043 22 5.73478 22 6V20C22 20.2652 21.8946 20.5196 21.7071 20.7071C21.5196 20.8946 21.2652 21 21 21H3C2.73478 21 2.48043 20.8946 2.29289 20.7071C2.10536 20.5196 2 20.2652 2 20V4C2 3.73478 2.10536 3.48043 2.29289 3.29289C2.48043 3.10536 2.73478 3 3 3H10.414L12.414 5H16V7H18V5H21ZM18 13H16V15H14V18H18V13ZM16 11H14V13H16V11ZM18 9H16V11H18V9ZM16 7H14V9H16V7Z"/></g></g><defs><clipPath id="a"><rect width="24" height="24" fill="white"/></clipPath></defs></svg>

<svg width="24" height="24" fill="none" xmlns="http://www.w3.org/2000/svg"><g clip-path="url(#a)"><path d="M21 5a1 1 0 0 1 1 1v14a1 1 0 0 1-1 1H3a1 1 0 0 1-1-1V4a1 1 0 0 1 1-1h7.414l2 2H16v2h2V5h3Zm-3 8h-2v2h-2v3h4v-5Zm-2-2h-2v2h2v-2Zm2-2h-2v2h2V9Zm-2-2h-2v2h2V7Z" /></g><defs><clipPath id="a"><path fill="#fff" d="M0 0h24v24H0z"/></clipPath></defs></svg>
